packages/bezier-icons/icons/contract.svg

<svg width="24" height="24" viewBox="0 0 24 24" fill="none" xmlns="http://www.w3.org/2000/svg">
<path fill-rule="evenodd" clip-rule="evenodd" d="M19.9393 4.05711C19.5488 3.66659 18.9157 3.66659 18.5251 4.05711L15.7929 6.78935L15.1851 6.18156L15.1851 6.18155C14.4997 5.49615 14.157 5.15345 13.8628 5.1303C13.6075 5.11021 13.358 5.21355 13.1917 5.40827C13 5.6327 13 6.11735 13 7.08665V9.39646C13 9.95651 13 10.2365 13.109 10.4505C13.2049 10.6386 13.3578 10.7916 13.546 10.8875C13.7599 10.9965 14.0399 10.9965 14.6 10.9965H16.9098C17.8791 10.9965 18.3638 10.9965 18.5882 10.8048C18.7829 10.6385 18.8863 10.389 18.8662 10.1337C18.843 9.83947 18.5003 9.49678 17.8149 8.81139L17.8149 8.81137L17.8149 8.81137L17.2071 8.20357L19.9393 5.47133C20.3299 5.0808 20.3299 4.44764 19.9393 4.05711ZM10.9965 16.9098C10.9965 17.8791 10.9965 18.3638 10.8048 18.5882C10.6385 18.7829 10.389 18.8863 10.1337 18.8662C9.83946 18.843 9.49676 18.5003 8.81136 17.8149L8.20356 17.2071L5.47133 19.9393C5.0808 20.3299 4.44764 20.3299 4.05711 19.9393C3.66659 19.5488 3.66659 18.9156 4.05711 18.5251L6.78934 15.7929L6.18155 15.1851C5.49615 14.4997 5.15345 14.157 5.13029 13.8628C5.1102 13.6075 5.21354 13.358 5.40827 13.1917C5.63269 13 6.11734 13 7.08665 13H9.39646C9.95651 13 10.2365 13 10.4504 13.109C10.6386 13.2049 10.7916 13.3579 10.8875 13.546C10.9965 13.7599 10.9965 14.0399 10.9965 14.6V16.9098Z" fill="#313234"/>
</svg>

<svg xmlns="http://www.w3.org/2000/svg" width="24" height="24" fill="none" viewBox="0 0 24 24"><path fill="#313234" fill-rule="evenodd" d="M19.94 4.057a1 1 0 0 0-1.415 0L15.793 6.79l-.608-.607c-.685-.686-1.028-1.029-1.322-1.052a.8.8 0 0 0-.671.278C13 5.633 13 6.118 13 7.087v2.31c0 .56 0 .84.109 1.053a1 1 0 0 0 .437.438c.214.108.494.108 1.054.108h2.31c.97 0 1.454 0 1.678-.191a.8.8 0 0 0 .278-.671c-.023-.295-.366-.637-1.051-1.323l-.608-.607L19.94 5.47a1 1 0 0 0 0-1.414M10.995 16.91c0 .97 0 1.454-.191 1.678a.8.8 0 0 1-.671.278c-.295-.023-.637-.366-1.323-1.051l-.607-.608L5.47 19.94a1 1 0 1 1-1.414-1.414l2.732-2.732-.607-.608c-.686-.685-1.029-1.028-1.052-1.322a.8.8 0 0 1 .278-.671C5.633 13 6.118 13 7.087 13h2.31c.56 0 .84 0 1.053.109a1 1 0 0 1 .438.437c.108.214.108.494.108 1.054z" clip-rule="evenodd"/></svg>
